X: 23495
T: Lexie MacAskill
R: reel
M: 4/4
K: Edorian
|:a/|e2e2 d>ee>d|e2d>B G>BB>d|e2e2 d>ee>d|e<gf>d e2 e>:|
|:f|g2f2 e2d>B|A<Ad>B G>BB>e|g2f2 e2d>B|e<gf>d e2 e>:|
g|e2e2 e2d>B|A>AA>B G>AB<d|e2e2e2d>B|e<gf>d e2 e>g|
e2e2e2d>B|A>AA>B G>AB<d|e2e2e2d>B|e<gf>d e2||
|:g2|a>ee>a e<ed>B|A<Ad>B G>BB>e|a>ee>a e<ed>B|e<gf>d e2:|

